X: 11316
T: Eagle's Whistle, The
R: waltz
M: 3/4
K: Amajor
|:c2 e>cBA|c2 e>cBA|B2 B>cBA|B2 B>cBA|
c2 e>cBA|c2 e>cBc|A2 A>cBc|1 A2 A>cBA:|2 A6||
|:f2 efae|f2 e>cBA|B2 B>cBA|B2 B>cBA|
f2 efae|f2 e>cBc|A2 A>cBc|1 A6:|2 A2 A>cBA||

